svg/apache-spark.svg

<svg viewBox="0 0 20 20" xmlns="http://www.w3.org/2000/svg">
<rect width="100%" height="100%" fill="#E25A1C"/>
<path fill-rule="evenodd" clip-rule="evenodd" d="M14.3122 13.1198C14.2752 13.0489 14.258 13.0126 14.2376 12.9786C13.6956 12.0599 13.1548 11.1401 12.6083 10.2237C12.5529 10.1321 12.5599 10.0773 12.6351 9.99896C13.4973 9.10103 14.3549 8.19964 15.2138 7.29882C15.2438 7.2677 15.2712 7.23369 15.2827 7.17779C15.0315 7.236 14.7802 7.29363 14.5296 7.353C13.4877 7.59909 12.4457 7.84461 11.4051 8.09359C11.3081 8.11664 11.2641 8.09186 11.2157 8.01982C10.6246 7.13918 10.0296 6.26026 9.43532 5.38134C9.40472 5.33524 9.37156 5.29086 9.30652 5.25282C9.25869 5.48739 9.20959 5.72196 9.16304 5.95653L8.66758 8.44285C8.64972 8.53276 8.62485 8.62151 8.61656 8.712C8.60764 8.7973 8.55917 8.829 8.47181 8.8532C7.24431 9.1967 6.01808 9.54366 4.79121 9.89061C4.73764 9.9056 4.68472 9.92519 4.62733 9.97187L7.65241 11.0439C7.61543 11.0698 7.5912 11.09 7.56441 11.1061C6.93695 11.468 6.30821 11.8283 5.6833 12.1919C5.60806 12.2352 5.54876 12.2415 5.46458 12.2075C4.71533 11.9072 3.96288 11.6121 3.21299 11.313C2.87566 11.1787 2.57277 11.0006 2.33683 10.7436C1.80311 10.1615 1.90832 9.49985 2.61932 9.09526C2.85207 8.96271 3.1167 8.86415 3.37942 8.7875C4.58205 8.43824 5.78915 8.10166 6.99498 7.76335C7.09637 7.73511 7.14356 7.69476 7.16205 7.59736C7.32274 6.76744 7.48981 5.93924 7.65688 5.11047C7.74679 4.66784 7.79461 4.21311 8.03629 3.80794C8.12939 3.65118 8.24034 3.49845 8.37298 3.36762C8.85122 2.89387 9.52013 2.87543 10.0264 3.32728C10.1973 3.47943 10.344 3.65925 10.4715 3.8431C11.0288 4.65401 11.5779 5.4701 12.1231 6.28677C12.1881 6.38417 12.2462 6.40319 12.3654 6.37495C13.7109 6.05336 15.0576 5.73694 16.4037 5.41996C16.6818 5.35426 16.9623 5.33063 17.2474 5.37789C17.8684 5.48163 18.1401 5.90235 17.9297 6.4372C17.834 6.68041 17.6689 6.88674 17.4833 7.08039C16.544 8.06593 15.606 9.05146 14.6635 10.0341C14.5864 10.1148 14.5845 10.1724 14.638 10.2623C15.2005 11.2075 15.7578 12.1545 16.3176 13.1008C16.4516 13.3273 16.5536 13.5619 16.5568 13.8224C16.5631 14.4143 16.0785 14.8984 15.4185 14.9843C15.0487 15.0327 14.7056 14.9624 14.36 14.8673C13.5164 14.6344 12.6715 14.4062 11.8259 14.1797C11.7475 14.1584 11.7175 14.1313 11.7041 14.0558C11.6066 13.5256 11.5007 12.9965 11.3981 12.4668C11.3955 12.4524 11.4 12.4369 11.4025 12.404L14.3122 13.1198Z" fill="white"/>
</svg>

<svg xmlns="http://www.w3.org/2000/svg" viewBox="0 0 20 20">
  <rect width="100%" height="100%" fill="#E25A1C"/>
  <path fill="#fff" fill-rule="evenodd" d="m14.31 13.12-.07-.14-1.63-2.76c-.06-.09-.05-.14.03-.22l2.57-2.7a.23.23 0 0 0 .07-.12l-.75.17-3.12.74c-.1.03-.15 0-.2-.07L9.45 5.38a.37.37 0 0 0-.13-.13l-.15.7-.5 2.5c-.01.08-.04.17-.04.26-.01.09-.06.12-.15.14L4.8 9.9a.42.42 0 0 0-.16.08l3.02 1.07-.09.07-1.88 1.08a.22.22 0 0 1-.22.02l-2.25-.9a2.33 2.33 0 0 1-.87-.57c-.54-.58-.43-1.24.28-1.64.23-.14.5-.24.76-.31l3.61-1.03c.1-.02.15-.07.17-.16l.5-2.49c.09-.44.13-.9.38-1.3.09-.16.2-.31.33-.44.48-.48 1.15-.5 1.66-.04.17.15.31.33.44.51.56.81 1.1 1.63 1.65 2.45.07.1.13.11.25.08l4.03-.95c.28-.07.56-.09.85-.04.62.1.89.52.68 1.06-.1.24-.26.45-.45.64l-2.82 2.95c-.07.08-.08.14-.02.23l1.68 2.84c.13.23.23.46.24.72 0 .6-.48 1.08-1.14 1.16-.37.05-.71-.02-1.06-.11-.84-.24-1.69-.46-2.53-.69-.08-.02-.11-.05-.13-.12l-.3-1.6v-.06l2.91.72Z" clip-rule="evenodd"/>
</svg>
